Themes/OneUI/assets/svg/wrench-material.svg

<?xml version="1.0" encoding="UTF-8" standalone="no"?>
<!-- Created with Vectornator (http://vectornator.io/) -->

<svg
   height="41.914207"
   stroke-miterlimit="10"
   style="clip-rule:evenodd;fill-rule:nonzero;stroke-linecap:round;stroke-linejoin:round"
   version="1.1"
   viewBox="0 0 46.046535 41.914207"
   width="46.046535"
   xml:space="preserve"
   id="svg2724"
   sodipodi:docname="wrench-material.svg"
   xmlns:inkscape="http://www.inkscape.org/namespaces/inkscape"
   xmlns:sodipodi="http://sodipodi.sourceforge.net/DTD/sodipodi-0.dtd"
   xmlns="http://www.w3.org/2000/svg"
   xmlns:svg="http://www.w3.org/2000/svg"
   xmlns:vectornator="http://vectornator.io"><sodipodi:namedview
   id="namedview2726"
   pagecolor="#ffffff"
   bordercolor="#666666"
   borderopacity="1.0"
   inkscape:showpageshadow="2"
   inkscape:pageopacity="0.0"
   inkscape:pagecheckerboard="0"
   inkscape:deskcolor="#d1d1d1" />
<defs
   id="defs2719" />
<g
   id="Untitled"
   vectornator:layerName="Untitled"
   transform="translate(0.0221121,-2.0418134)">
<path
   d="m 44.3481,10.43 -9.0914,7.6287 -5.1165,-5.1155 -0.0421,-0.0499 9.5741,-8.03598 C 34.8494,1.57261 28.2556,1.72731 23.5621,5.66601 19.55,9.02701 18.0256,14.2414 19.1564,19.0084 L 2.61354,32.8921 c -2.5327034,2.1245 -2.862703,5.8958 -0.7401,8.4276 2.1265,2.5357 5.9016,2.8627 8.43246,0.7382 L 26.8487,28.1761 c 4.4997,1.9414 9.8981,1.3452 13.9073,-2.0207 4.6935,-3.9338 5.9888,-10.4004 3.5921,-15.7254"
   fill="#000000"
   fill-rule="evenodd"
   opacity="1"
   stroke="#000000"
   stroke-linecap="butt"
   stroke-linejoin="miter"
   stroke-opacity="0"
   stroke-width="1"
   id="path2721" />
</g>
</svg>

<?xml version="1.0" encoding="UTF-8" standalone="no"?>
<!DOCTYPE svg PUBLIC "-//W3C//DTD SVG 1.1//EN" "http://www.w3.org/Graphics/SVG/1.1/DTD/svg11.dtd">
<!-- Created with Vectornator (http://vectornator.io/) -->
<svg height="100%" stroke-miterlimit="10" style="fill-rule:nonzero;clip-rule:evenodd;stroke-linecap:round;stroke-linejoin:round;" version="1.1" viewBox="0 0 46 46" width="100%" xml:space="preserve" xmlns="http://www.w3.org/2000/svg" xmlns:vectornator="http://vectornator.io" xmlns:xlink="http://www.w3.org/1999/xlink">
<defs/>
<g id="Untitled" vectornator:layerName="Untitled">
<path d="M44.3481 10.43L35.2567 18.0587L30.1402 12.9432L30.0981 12.8933L39.6722 4.85732C34.8494 1.57261 28.2556 1.72731 23.5621 5.66601C19.55 9.02701 18.0256 14.2414 19.1564 19.0084L2.61354 32.8921C0.0808366 35.0166-0.249163 38.7879 1.87344 41.3197C3.99994 43.8554 7.77504 44.1824 10.3059 42.0579L26.8487 28.1761C31.3484 30.1175 36.7468 29.5213 40.756 26.1554C45.4495 22.2216 46.7448 15.755 44.3481 10.43" fill="#000000" fill-rule="evenodd" opacity="1" stroke="#000000" stroke-linecap="butt" stroke-linejoin="miter" stroke-opacity="0" stroke-width="1"/>
</g>
</svg>
